X: 2
T:Green Sleaves(!). WI.002
T:Green Grow The Rushes O,aka. WI.002
M:C|
Q:200
S:Wm Irwin, 1838 MS, AGG's Transcription
R:Reel
O:England
A:Lake District
N:AGG says cf Kershaw Green Grows etc but I think the link is
N:tenuous..CGP
Z:vmp.Chris Partington.2005
K:G
G3e dBGB|cABG AGEF|G3e dBGB|cABG A2G2:|!
Ggga gddg|eaab agef|gage dBGB|cABG A2G2:|]
